X:1
T:A L'ASSAUT
T:A L'ASSAUT
T:Marche Militaire
T:Emeri LIÉGEOIS.
T:Dédiée au Capitaine Georges MARLOIE.
T:2284
T:2284
T:2284
C:Emeri LIÉGEOIS.
Z:2284
%%score { 1 | ( 2 3 ) }
L:1/8
Q:1/4=90
M:2/4
K:D
V:1 treble nm="Piano" snm="Pno."
V:2 bass 
V:3 bass 
V:1
 [A,DFA]A/F/ D/A,/D/F/ | [A,DFA]A/F/ D/A,/D/F/ | [A,A][A,A]/[A,A]/ [A,A][A,A]/[A,A]/ | %3
 [A,A][A,A][A,A][A,A] | [A,A]A/F/ D/A,/D/F/ | [A,DFA]A/F/ D/A,/D/F/ | %6
 [A,A][A,A]/[A,A]/ [A,A][A,A]/[A,A]/ | [A,A]!mf! z A,>A, || D2 [CE]2 | [DF]2 [DFA]2 | !>![DFAd]4- | %11
 [DFAd]A/A/ (3AFA | [DFAd]4- | [DFAd]A/A/ (3AFD | [CEA][CEA]/[CEA]/ [CEA][CEA]/[CEA]/ | %15
 [CEA][CEA][CEA][CEA] | D2 [CE]2 | [DF]2 [DFA]2 | !>![DFAd]4- | [DFAd]A/A/ (3AFA | %20
 !>![DFAd]A/A/ (3AFD | !>![CEA][CEA]/[CEA]/ [CEA][CEA]/[CEA]/ | D2!ff!{ABA} ^GA || %23
 [Acg]/[Acg]/[Acg] [Acg]/[Acg]/[Acg] | [Acg]/[Acg]/[Acg] [Acg]/[Acg]/[Acg] | [Af]>[Ae] [Ad]2- | %26
 [Ad] (3A/B/A/!p! ^GA | [Ac]/[Ac]/[Ac] [GB]/[GB]/[GB] | [FA]/[FA]/[FA] [EG]/[EG]/[EG] | FDFB | %30
 A(3A/B/A/ ^GA | [Acg]/[Acg]/[Acg] [Acg]/[Acg]/[Acg] | [F^Af]/[FAf]/[FAf] [FAe]/[FAe]/[FAe] | %33
 [Fd]>[Fc] [FB]2- | [FB]dcB | [Ee]e/c/ A/E/A/c/ | e2 [DE^G]2 | [CEA]^G/F/ E/D/C/B,/ | A, z z2 || %39
 [A,DFA]A/F/ D/A,/D/F/ | [A,DFA]A/F/ D/A,/D/F/ | [A,A][A,A]/[A,A]/ [A,A][A,A]/[A,A]/ | %42
 [A,A][A,A][A,A][A,A] | [A,A]A/F/ D/A,/D/F/ | [A,DFA]A/F/ D/A,/D/F/ | %45
 [A,A][A,A]/[A,A]/ [A,A][A,A]/[A,A]/ | D z z [FAd] | [FAd]2 [FAd]2 | [FAd]2 z2!fine! || %49
[K:G]!p! [Bd]2 [B^c]2 | [Bd]2 [Be]>[Bf] | [Bg]2 [Bf]>[Be] | [Bd]2 c>B | [Fd]2 [Fc]>[FB] | %54
 ((!>![^E^G]2 [FA])) z | [Fe]2 [Ff]>[Fe] | ([G-^A^c]2 [GBd]) z | [Bd]2 [B^c]2 | [Bd]2 [Be]>[Bf] | %59
 [Bg]2 [Bf]>[Be] | [Bd]2 ^c>B | A>FAd | f2 z (3A/d/f/ | a2 [GA^c]2 | [FAd] z [Dd][Dd] || %65
!ff! z [FAcd]z[FAcd] | z [FAcd]z[FAcd] | z [FAcd]/[FAcd]/ [FAcd][FAcd] | %68
 z [FAcd]/[FAcd]/ [FAcd][FAcd] | z [^GBde]z[GBde] | z [^GBde]z[GBde] | z [Ace]/[Ace]/ [Ace][Ace] | %72
 z [Ace]/[Ace]/ [Ace][Ace] | [G_Bg]2 [GBg]>[GBg] | [G_Bf]2 [GBe]2 | [GBd]4- | [GBd]2 [Bd]>[Ac] | %77
 [GB]2 B>A | G2 D>[DB] | [CA]4 | [B,B][Dd]/[Dd]/ [Dd][Dd] ||!ff! z [FAcd]z[FAcd] | %82
 z [FAcd]z[FAcd] | z [FAcd]/[FAcd]/ [FAcd][FAcd] | z [FAcd]/[FAcd]/ [FAcd][FAcd] | %85
 z [^GBde]z[GBde] | z [^GBde]z[GBde] | z [Ace]/[Ace]/ [Ace][Ace] | z [Ace]/[Ace]/ [Ace][Ace] | %89
 [G_Bg]2 [GBg]>[GBg] | [G_Bf]2 [GBe]2 | [GBd]4- | [GBd]2 [Bd]>[Ac] | [GB]2 B>A | G2 D>[DB] | %95
 [CA]4 | [B,G]2 z2!D.C.! |] %97
V:2
 [D,,A,,D,]2 z2 | [D,,A,,D,]2 z2 | [A,,,A,,]2 z2 | [C,E,][D,F,][E,G,][D,F,] | [D,F,]2 z2 | %5
 [D,,A,,D,]2 z2 | [A,,,A,,]2 [A,,,A,,]2 | [A,,,A,,] z"^staccato" z2 || [D,,D,]2 A,,2 | %9
 [D,,D,]2 A,,2 | [D,,D,]2 A,,2 | [D,,D,]2 A,,2 | [D,,D,]2 A,,2 | [D,,D,]2 A,,2 | [A,,A,]4- | %15
 [A,,A,][G,,G,][F,,F,][D,,D,] | [D,,D,]2 A,,2 | [D,,D,]2 A,,2 | [D,,D,]2 A,,2 | [D,,D,]2 A,,2 | %20
 [D,,D,]2 A,,2 | [A,,A,]2 [A,,A,]2 | [D,F,A,]2 z2 || [A,,,A,,]2 [^A,,,^A,,]2 | %24
 [B,,,B,,]2 [C,,C,]2 | %25
"_Maison DE AYNSSA\n  E. DE SAEDELER et E. POSSOZ, Succrs\n37, Boulevard du Jardin Botanique, Bruxelles.\n" [D,,D,]>[E,,E,] [F,,F,]2- | %26
 [F,,F,] z z2 | E,[G,A,]A,,[G,A,] | E,[G,A,]A,,[G,A,] | [D,F,A,][D,F,A,][D,F,A,][D,F,A,] | %30
 [D,F,A,] z z2 | [A,,,A,,]4 | [^A,,,^A,,]2 [F,,,F,,]2 | [B,,,B,,]>[C,,C,] [D,,D,]2- | %34
 [D,,D,] z z2 | [E,A,C] z z2 | [E,^G,D]2 [E,,E,]2 | [A,,A,] z z2 | z4 || [D,,A,,D,]2 z2 | %40
 [D,,A,,D,]2 z2 | [A,,,A,,]2 z2 | [C,E,][D,F,][E,G,][D,F,] | [D,F,]2 z2 | [D,,A,,D,]2 z2 | %45
 [A,,,A,,]2 [A,,,A,,]2 | [D,,D,] z z D, | A,,2 F,,2 | D,,2"^FIN." z2 ||[K:G] G,[B,D]D,[B,D] | %50
 G,[B,D]D,[B,D] | G,[B,D]D,[B,D] | G,[B,D]D,[B,D] | A,[CD]F,[CD] | D,[CD][CD][CD] | A,[CD]F,[CD] | %56
 z ED z | G,[B,D]D,[B,D] | G,[B,D]D,[B,D] | G,[B,D]D,[B,D] | G,[B,D] ^G,[D=F] | [A,DF]2 z2 | %62
 [A,DF]2 z2 | z2 [A,,A,]2 | [D,,D,]2 z2 || [C,C]2 [B,,B,]2 | [A,,A,]2 [^G,,^G,]2 | %67
 [B,,B,]3 [A,,B,] | [D,,D,]4 | [E,E]2 [D,D]2 | [C,C]2 [B,,B,]2 | [E,E]3 [C,C] | [A,,A,]4 | %73
 [^C,,^C,]2 [_E,_B,^C]2 | [_E,_B,^C]2 z2 | [D,,D,]2 [D,G,B,]>[D,G,B,] | [D,G,B,]2 z2 | z2 D>C | %78
 B,2 z2 | z [D,,D,][E,,E,][F,,F,] | [G,,G,]2 z2 || [C,C]2 [B,,B,]2 | [A,,A,]2 [^G,,^G,]2 | %83
 [B,,B,]3 [A,,B,] | [D,,D,]4 | [E,E]2 [D,D]2 | [C,C]2 [B,,B,]2 | [E,E]3 [C,C] | [A,,A,]4 | %89
 [^C,,^C,]2 [_E,_B,^C]2 | [_E,_B,^C]2 z2 | [D,,D,]2 [D,G,B,]>[D,G,B,] | [D,G,B,]2 z2 | z2 D>C | %94
 B,2 z2 | z [D,,D,][E,,E,][F,,F,] | [G,,G,]2"^D.C." z2 |] %97
V:3
 x4 | x4 | x4 | x4 | x4 | x4 | x4 | x4 || x4 | x4 | x4 | x4 | x4 | x4 | x4 | x4 | x4 | x4 | x4 | %19
 x4 | x4 | x4 | x4 || x4 | x4 | x4 | x4 | x4 | x4 | x4 | x4 | x4 | x4 | x4 | x4 | x4 | x4 | x4 | %38
 x4 || x4 | x4 | x4 | x4 | x4 | x4 | x4 | x4 | x4 | x4 ||[K:G] x4 | x4 | x4 | x4 | x4 | x4 | x4 | %56
 G,2- G, z | x4 | x4 | x4 | x4 | x4 | x4 | x4 | x4 || x4 | x4 | x4 | x4 | x4 | x4 | x4 | x4 | x4 | %74
 x4 | x4 | x4 | x4 | x4 | x4 | x4 || x4 | x4 | x4 | x4 | x4 | x4 | x4 | x4 | x4 | x4 | x4 | x4 | %93
 x4 | x4 | x4 | x4 |] %97

